img/Modernity.svg

<svg width="70" height="70" viewBox="0 0 70 70" fill="none" xmlns="http://www.w3.org/2000/svg">
<path d="M69.9432 9.8964C69.8055 9.47516 69.4416 9.16727 69.0017 9.10301L64.8227 8.49515L62.9525 4.70812C62.5606 3.91008 61.2527 3.91008 60.8607 4.70812L58.9905 8.49515L54.8114 9.10315C54.3715 9.16727 54.0076 9.47421 53.8687 9.89654C53.7322 10.3189 53.8453 10.7832 54.1638 11.0924L57.1891 14.0407L56.4751 18.2034C56.4005 18.6409 56.5801 19.0831 56.9383 19.3445C57.3012 19.6082 57.7748 19.6408 58.168 19.4331L61.9061 17.4672L65.6441 19.4331C65.8145 19.5229 66.0024 19.5672 66.1879 19.5672C66.4293 19.5672 66.6709 19.4926 66.874 19.3444C67.2333 19.0831 67.4129 18.6408 67.3372 18.2033L66.6232 14.0405L69.6484 11.0923C69.9653 10.7819 70.0798 10.3187 69.9432 9.8964ZM64.5556 12.7991C64.2815 13.0663 64.1554 13.4536 64.2207 13.8316L64.6384 16.2688L62.4498 15.1185C62.2795 15.0286 62.0928 14.9843 61.9061 14.9843C61.7194 14.9843 61.5339 15.0286 61.3623 15.1185L59.1736 16.2688L59.5912 13.8316C59.6566 13.4536 59.5305 13.0675 59.2564 12.7991L57.4842 11.0725L59.932 10.7166C60.3123 10.6618 60.6402 10.4226 60.8105 10.0784L61.9048 7.86172L62.9991 10.0784C63.1695 10.4225 63.4974 10.6618 63.8777 10.7166L66.3254 11.0725L64.5556 12.7991Z" fill="#2196F3"/>
<path d="M57.1669 44.8923H54.8335V47.2257H57.1669V44.8923Z" fill="#2196F3"/>
<path d="M57.1669 49.5591H54.8335V51.8925H57.1669V49.5591Z" fill="#2196F3"/>
<path d="M59.5004 47.2257H57.167V49.5591H59.5004V47.2257Z" fill="#2196F3"/>
<path d="M54.8337 47.2257H52.5002V49.5591H54.8337V47.2257Z" fill="#2196F3"/>
<path d="M49.0001 57.7259H46.6667V60.0593H49.0001V57.7259Z" fill="#2196F3"/>
<path d="M49.0001 62.3926H46.6667V64.726H49.0001V62.3926Z" fill="#2196F3"/>
<path d="M51.3337 60.0593H49.0002V62.3927H51.3337V60.0593Z" fill="#2196F3"/>
<path d="M46.6669 60.0593H44.3335V62.3927H46.6669V60.0593Z" fill="#2196F3"/>
<path d="M34.9999 53.0592H32.6665V55.3926H34.9999V53.0592Z" fill="#2196F3"/>
<path d="M34.9999 57.7259H32.6665V60.0593H34.9999V57.7259Z" fill="#2196F3"/>
<path d="M37.3334 55.3925H35V57.7259H37.3334V55.3925Z" fill="#2196F3"/>
<path d="M32.6667 55.3925H30.3333V57.7259H32.6667V55.3925Z" fill="#2196F3"/>
<path d="M12.8329 13.3918H10.4995V15.7252H12.8329V13.3918Z" fill="#2196F3"/>
<path d="M12.8329 18.0587H10.4995V20.3921H12.8329V18.0587Z" fill="#2196F3"/>
<path d="M15.1664 15.7253H12.833V18.0587H15.1664V15.7253Z" fill="#2196F3"/>
<path d="M10.4997 15.7253H8.16626V18.0587H10.4997V15.7253Z" fill="#2196F3"/>
<path d="M54.0635 30.9738C53.4347 30.1256 52.5119 29.5797 51.4642 29.4326C50.4118 29.2833 49.3734 29.5597 48.5334 30.2026L45.7952 32.3014L45.794 32.3026L41.6428 35.4025L38.6724 34.2195C43.9691 31.843 47.6711 26.545 47.6711 20.3942C47.6711 12.0314 40.8401 5.22739 32.4436 5.22739C24.047 5.22739 17.2161 12.0314 17.2161 20.3942C17.2161 23.4253 18.1226 26.244 19.6662 28.6158L13.6204 28.5633C13.6168 28.5633 13.6134 28.5633 13.6099 28.5633C13.5911 28.5633 13.5761 28.5726 13.5586 28.5738C13.4431 28.5785 13.3298 28.6019 13.2191 28.6415C13.1911 28.652 13.162 28.6579 13.1352 28.6706C13.1212 28.6765 13.1071 28.6776 13.0932 28.6846L6.02075 32.1764C6.01952 32.1764 6.01843 32.1764 6.01843 32.1775L1.8766 34.1693C1.83107 34.1891 1.78445 34.2159 1.73892 34.2463C0.0880191 35.3452 -0.474314 37.5036 0.429958 39.2676C0.911763 40.2056 1.73195 40.8964 2.73999 41.2125C3.12856 41.3337 3.52518 41.3933 3.91949 41.3933C4.55305 41.3933 5.18074 41.2382 5.75578 40.9314L8.79154 39.3167L13.7441 36.7593L16.7122 36.7418L4.80844 48.5884C4.80735 48.5896 4.80612 48.5896 4.80489 48.5907L1.87647 51.5074C1.18466 52.1958 0.8043 53.1092 0.8043 54.0835C0.8043 55.0565 1.18466 55.9723 1.87647 56.6619C2.587 57.3689 3.52149 57.7236 4.45598 57.7236C5.3917 57.7236 6.32495 57.3689 7.03782 56.6619L9.91251 53.7988L13.7206 50.9556L15.6912 52.9179L11.8375 56.7552C11.8364 56.7564 11.8352 56.7564 11.834 56.7575L8.90556 59.6741C8.21375 60.3625 7.8334 61.276 7.8334 62.2502C7.8334 63.2233 8.21375 64.139 8.90556 64.8287C9.6161 65.5356 10.5518 65.8903 11.4863 65.8903C12.4208 65.8903 13.3565 65.5356 14.0681 64.8287L16.9977 61.912L21.6842 57.2453C21.6854 57.2441 21.6854 57.243 21.6865 57.2417L23.8951 55.0542L23.8869 55.046C23.9008 55.0321 23.9207 55.0273 23.9347 55.0122L35.2353 42.6349L42.8281 43.7153C42.8829 43.7235 42.9377 43.7269 42.9925 43.7269C43.1338 43.7269 43.2702 43.6931 43.402 43.6429C43.4406 43.629 43.4743 43.6103 43.5106 43.5917C43.5526 43.5706 43.5968 43.559 43.6366 43.5322L50.6659 38.8655C50.6916 38.848 50.7055 38.82 50.73 38.8014C50.758 38.7792 50.793 38.7699 50.8186 38.7453L53.5999 36.1401C55.0471 34.7841 55.2466 32.5628 54.0635 30.9738ZM4.66024 38.8722C4.28111 39.0752 3.85058 39.116 3.43878 38.9854C3.03039 38.8583 2.69912 38.5793 2.50538 38.2025C2.15305 37.5165 2.35718 36.6811 2.97433 36.2297L5.84793 34.8471L6.53974 36.869L6.83027 37.7183L4.66024 38.8722ZM12.3102 34.8741L8.92333 36.6241L8.36456 34.9907L7.96328 33.817L12.3967 31.6282L12.3102 34.8741ZM45.3402 20.3919C45.3402 22.4009 44.8607 24.2957 44.03 25.9908L34.8832 21.8362C34.7875 20.5821 34.1366 19.4842 33.1589 18.8005L36.3614 8.16853C41.5626 9.82298 45.3402 14.6752 45.3402 20.3919ZM19.5519 20.3919C19.5519 13.3159 25.3363 7.55834 32.446 7.55834C32.9991 7.55834 33.5403 7.60496 34.0759 7.67264L30.9433 18.0714C30.9014 18.0701 30.8617 18.0585 30.8185 18.0585C28.5597 18.0585 26.7222 19.8902 26.7222 22.1419C26.7222 24.3936 28.5597 26.2254 30.8185 26.2254C32.3375 26.2254 33.65 25.3866 34.3582 24.1591L42.8073 27.9976C40.4564 31.1616 36.6938 33.2255 32.4459 33.2255C25.3363 33.2255 19.5519 27.4679 19.5519 20.3919ZM32.5814 22.1419C32.5814 23.1068 31.7903 23.892 30.8185 23.892C29.8467 23.892 29.0556 23.1068 29.0556 22.1419C29.0556 21.1771 29.8467 20.3919 30.8185 20.3919C31.7903 20.3919 32.5814 21.1771 32.5814 22.1419ZM5.39183 55.0075C4.87503 55.5196 4.03843 55.5185 3.52286 55.0087C3.2743 54.7601 3.13785 54.4324 3.13785 54.0835C3.13785 53.7358 3.2743 53.408 3.52286 53.1619L5.6274 51.0652L7.48941 52.9192L5.39183 55.0075ZM12.4222 63.1743C11.9054 63.6865 11.0677 63.6877 10.552 63.1756C10.3034 62.927 10.1669 62.5993 10.1669 62.2504C10.1669 61.9027 10.3034 61.5748 10.552 61.3287L12.6579 59.231L13.5388 60.1073L14.5211 61.085L12.4222 63.1743ZM20.0383 55.5862C20.0371 55.5873 20.036 55.5873 20.0348 55.5885L16.1742 59.4386L15.2933 58.5623L14.311 57.5846L18.168 53.7451C18.168 53.7451 18.168 53.7451 18.168 53.744C18.1692 53.7428 18.1703 53.7428 18.1715 53.7417C18.259 53.6542 18.3139 53.5492 18.3676 53.4454C18.3828 53.4151 18.4119 53.3894 18.4248 53.3579C18.461 53.2681 18.4667 53.1713 18.4808 53.0767C18.4878 53.0229 18.5112 52.9729 18.5112 52.9179C18.5112 52.8397 18.4831 52.764 18.4669 52.6869C18.4529 52.6169 18.4529 52.5457 18.426 52.4781C18.3817 52.3685 18.3058 52.2717 18.2265 52.1771C18.2044 52.1514 18.1962 52.1187 18.1717 52.0942C18.1717 52.0942 18.1717 52.0942 18.1705 52.0942C18.1692 52.0931 18.1692 52.0906 18.1681 52.0896L14.6529 48.5895C14.6156 48.5522 14.5677 48.537 14.5257 48.5056C14.464 48.4577 14.4045 48.4134 14.3356 48.3795C14.2691 48.3468 14.2014 48.327 14.1314 48.3083C14.0568 48.2872 13.9845 48.2709 13.9063 48.2651C13.835 48.2604 13.7686 48.2674 13.6975 48.2756C13.6193 48.2849 13.5459 48.2954 13.47 48.3199C13.3964 48.3433 13.3312 48.3794 13.2635 48.4179C13.2203 48.4424 13.1714 48.4506 13.1305 48.4809L9.25133 51.3767L7.28077 49.4143L12.5285 44.1946L22.0674 53.576L20.0383 55.5862ZM34.9544 40.2372C34.9207 40.2326 34.8891 40.2454 34.8553 40.2431C34.7701 40.2385 34.6885 40.2443 34.6034 40.2583C34.5369 40.2699 34.4739 40.2828 34.4108 40.3049C34.3362 40.3306 34.2685 40.3656 34.1996 40.4076C34.1343 40.4472 34.0748 40.4892 34.0176 40.5417C33.9896 40.5662 33.9558 40.5779 33.9301 40.6058L23.6527 51.8621L14.185 42.5507L20.3825 36.3859C20.8387 35.9309 20.841 35.1924 20.386 34.735C20.1562 34.5052 19.854 34.392 19.5519 34.3932V34.3921L14.6984 34.4213L14.7591 30.9049L21.5492 30.9633C24.3166 33.7937 28.176 35.5589 32.446 35.5589C33.4027 35.5589 34.3361 35.4598 35.2448 35.2905C35.3323 35.3605 35.4186 35.4318 35.5284 35.4761L40.7995 37.5761L41.1331 39.2351L41.5228 41.1717L34.9544 40.2372ZM43.7944 40.6269L43.1096 37.219L46.2736 34.8564L47.102 35.9554L48.3445 37.6051L43.7944 40.6269ZM52.0055 34.4341L50.1726 36.1515L48.1356 33.4471L49.9544 32.053C50.2938 31.7917 50.7221 31.6855 51.1421 31.7403C51.5644 31.7998 51.9378 32.0203 52.1921 32.3621C52.6658 33.0003 52.5853 33.8905 52.0055 34.4341Z" fill="#212121"/>
<path d="M29.7547 40.5651L25.0669 35.8984C24.6131 35.4446 23.8757 35.4446 23.4207 35.8984L18.7341 40.5651C18.5148 40.7856 18.3911 41.0819 18.3911 41.3922C18.3911 41.7026 18.5136 42.0001 18.7341 42.2194L23.4207 46.8861C23.6482 47.1124 23.9469 47.2256 24.2444 47.2256C24.5419 47.2256 24.8405 47.1124 25.0669 46.8861L29.7547 42.2194C29.974 42.0001 30.0988 41.7026 30.0988 41.3922C30.0988 41.0819 29.9751 40.7844 29.7547 40.5651ZM24.2444 44.4128L21.211 41.3922L24.2444 38.3717L27.2789 41.3922L24.2444 44.4128Z" fill="#212121"/>
<path d="M37.5467 11.0923L36.9832 13.3581C37.1383 13.3966 40.7843 14.3463 40.7843 18.0587H43.1177C43.1175 13.6461 39.4741 11.5718 37.5467 11.0923Z" fill="#212121"/>
<path d="M43.1178 20.3919H40.7844V22.7253H43.1178V20.3919Z" fill="#212121"/>
</svg>

<svg width="70" height="70" fill="none" xmlns="http://www.w3.org/2000/svg"><path d="M69.943 9.896a1.168 1.168 0 00-.941-.793l-4.18-.608-1.87-3.787c-.391-.798-1.7-.798-2.091 0l-1.87 3.787-4.18.608a1.167 1.167 0 00-.648 1.99l3.026 2.948-.714 4.162c-.075.438.105.88.463 1.142.363.263.837.296 1.23.088l3.738-1.966 3.738 1.966a1.169 1.169 0 001.693-1.23l-.714-4.162 3.025-2.949a1.17 1.17 0 00.295-1.196zM64.556 12.8c-.275.267-.4.655-.335 1.033l.417 2.437-2.188-1.15a1.163 1.163 0 00-1.088 0l-2.188 1.15.417-2.437a1.168 1.168 0 00-.335-1.033l-1.772-1.726 2.448-.356c.38-.055.708-.294.878-.639l1.095-2.216 1.094 2.216c.17.345.498.584.879.639l2.447.355-1.77 1.727zM57.167 44.892h-2.334v2.334h2.334v-2.334zM57.167 49.56h-2.334v2.332h2.334V49.56zM59.5 47.226h-2.333v2.333H59.5v-2.333z" fill="#2196F3"/><path d="M54.834 47.226H52.5v2.333h2.334v-2.333zM49 57.726h-2.333v2.333H49v-2.333zM49 62.393h-2.333v2.333H49v-2.333zM51.334 60.06H49v2.333h2.334v-2.334zM46.667 60.06h-2.334v2.333h2.334v-2.334zM35 53.06h-2.334v2.333H35v-2.334zM35 57.726h-2.334v2.333H35v-2.333zM37.333 55.392H35v2.334h2.333v-2.334z" fill="#2196F3"/><path d="M32.667 55.392h-2.334v2.334h2.334v-2.334zM12.833 13.392h-2.334v2.333h2.334v-2.333zM12.833 18.059h-2.334v2.333h2.334V18.06zM15.166 15.725h-2.333v2.334h2.333v-2.334zM10.5 15.725H8.166v2.334H10.5v-2.334z" fill="#2196F3"/><path d="M54.063 30.974a3.88 3.88 0 00-2.599-1.541 3.886 3.886 0 00-2.93.77L45.794 32.3l-.001.002-4.151 3.1-2.97-1.184c5.296-2.376 8.998-7.674 8.998-13.825 0-8.363-6.83-15.167-15.227-15.167s-15.228 6.804-15.228 15.167c0 3.031.907 5.85 2.45 8.222l-6.046-.053h-.01c-.019 0-.034.01-.051.01a1.143 1.143 0 00-.34.069c-.028.01-.057.016-.084.029-.014.006-.028.007-.042.014l-7.072 3.491c-.001 0-.003 0-.003.002l-4.141 1.991a.898.898 0 00-.138.077A3.895 3.895 0 00.43 39.268a3.884 3.884 0 002.31 1.944 3.891 3.891 0 003.016-.281l3.036-1.614 4.952-2.558 2.968-.017L4.808 48.588c0 .002-.002.002-.003.003l-2.929 2.916a3.607 3.607 0 00-1.072 2.577c0 .972.38 1.888 1.072 2.578a3.647 3.647 0 002.58 1.062c.936 0 1.869-.355 2.582-1.062l2.875-2.863 3.808-2.843 1.97 1.962-3.854 3.837-.003.002-2.928 2.917a3.608 3.608 0 00-1.073 2.576c0 .973.38 1.889 1.073 2.579a3.65 3.65 0 002.58 1.061c.935 0 1.87-.354 2.582-1.061l2.93-2.917 4.686-4.667.002-.003 2.21-2.188-.01-.008c.015-.014.035-.019.049-.034l11.3-12.377 7.593 1.08c.055.008.11.012.164.012.142 0 .278-.034.41-.084.039-.014.072-.033.109-.051.042-.021.086-.033.126-.06l7.029-4.666c.026-.018.04-.046.064-.065.028-.022.063-.031.089-.056l2.78-2.605a3.892 3.892 0 00.465-5.166zM4.66 38.872a1.56 1.56 0 01-1.221.113 1.564 1.564 0 01-.465-2.755l2.874-1.383.692 2.022.29.85-2.17 1.153zm7.65-3.998l-3.387 1.75-.558-1.633-.402-1.174 4.434-2.189-.087 3.246zm33.03-14.482c0 2.009-.48 3.904-1.31 5.599l-9.147-4.155a4.07 4.07 0 00-1.724-3.035L36.36 8.168c5.202 1.654 8.98 6.506 8.98 12.223zm-25.788 0c0-7.076 5.784-12.834 12.894-12.834.553 0 1.094.047 1.63.115L30.943 18.07c-.042 0-.081-.013-.125-.013a4.094 4.094 0 00-4.096 4.084 4.094 4.094 0 004.096 4.083c1.52 0 2.832-.838 3.54-2.066l8.45 3.839c-2.352 3.164-6.114 5.227-10.362 5.227-7.11 0-12.894-5.757-12.894-12.833zm13.03 1.75c0 .965-.792 1.75-1.764 1.75a1.759 1.759 0 01-1.762-1.75c0-.965.79-1.75 1.762-1.75s1.763.785 1.763 1.75zM5.391 55.007a1.331 1.331 0 01-1.87.002 1.3 1.3 0 010-1.847l2.105-2.097L7.49 52.92l-2.097 2.089zm7.03 8.167a1.33 1.33 0 01-1.87.002 1.3 1.3 0 010-1.847l2.106-2.098.88.876.983.978-2.099 2.09zm7.616-7.588l-.003.003-3.86 3.85-.882-.877-.982-.977 3.857-3.84v-.001l.004-.002c.087-.088.142-.193.196-.297.015-.03.044-.056.057-.087.036-.09.042-.187.056-.281.007-.054.03-.104.03-.16 0-.077-.028-.153-.044-.23-.014-.07-.014-.141-.041-.209a1.167 1.167 0 00-.2-.3c-.022-.027-.03-.06-.054-.084h-.002s0-.003-.002-.004l-3.515-3.5c-.037-.038-.085-.053-.127-.084a1.112 1.112 0 00-.19-.127 1.087 1.087 0 00-.205-.07 1.118 1.118 0 00-.225-.044 1.132 1.132 0 00-.209.01c-.078.01-.151.02-.227.045a1.08 1.08 0 00-.207.098c-.043.024-.092.033-.133.063l-3.879 2.896-1.97-1.963 5.247-5.22 9.54 9.382-2.03 2.01zm14.916-15.349c-.033-.004-.065.008-.099.006a1.146 1.146 0 00-.252.015 1.075 1.075 0 00-.404.15c-.065.04-.124.081-.181.134-.028.024-.062.036-.088.064L23.653 51.862l-9.468-9.311 6.197-6.165a1.168 1.168 0 00-.83-1.993l-4.854.028.061-3.516 6.79.058a15.2 15.2 0 0010.897 4.596c.957 0 1.89-.1 2.799-.268.087.07.174.14.283.185l5.272 2.1.333 1.66.39 1.936-6.569-.935zm8.84.39l-.684-3.408 3.164-2.363.828 1.1 1.242 1.65-4.55 3.02zm8.212-6.193l-1.833 1.718-2.037-2.705 1.818-1.394c.34-.261.768-.367 1.188-.313.422.06.796.28 1.05.622a1.562 1.562 0 01-.187 2.072z" fill="#212121"/><path d="M29.755 40.565l-4.688-4.667a1.165 1.165 0 00-1.646 0l-4.687 4.667a1.172 1.172 0 000 1.654l4.687 4.667a1.165 1.165 0 001.646 0l4.688-4.667a1.167 1.167 0 000-1.654zm-5.51 3.848l-3.034-3.02 3.033-3.021 3.035 3.02-3.035 3.02zM37.547 11.092l-.564 2.266c.155.039 3.801.988 3.801 4.7h2.334c0-4.412-3.644-6.486-5.571-6.966zM43.118 20.392h-2.334v2.333h2.334v-2.333z" fill="#212121"/></svg>
